X: 12582
T: Farewell To The Catskills
R: waltz
M: 3/4
K: Gmajor
G G/F/E|:"G"D2 DE GA|"G"Bg2g gf|"C"e3g ed|"G"B4 gf|
"G"ed B2 BA|"Em"BE3 Bc|BA "G"G2F2|"Em"E3G (3GFE|
"G"D2 DE GA|"G"Bg2g gf|"C"e3g ed|"G"B4 gf|
"G"ed B2 BA|"Em"BE3 Bc|BA "G"G2F2|G2-G2-G2|1 G3 G G/F/E:|2 G2-G "D"dga||
"G"ba g3 b|"D"a f3 d/e/f|"Em"g2f2e2|"Bm"B3 AAD|
"G"G3AAG|"Em"Bg2 gge|"D"d2B2G2|"A7"A2-A "D"dga|
"G"ba g3 b|"D"a f3 d/e/f|"Em"g2f2e2|"Bm"B3AAD|
"G"G3AAG|"Em"Bg2 gge|"D"d2B2G2|"D7"A2-A G G/F/E|
"G"D2 DE GA|"G"Bg2g gf|"Em"e3ged|"Bm"B4 gf|
"G"ed B2 BA|"Em"BE3 Bc|BA "G"G2F2|G2-G2-G2|-G3 G (3GFE||

